X:173
T: Waise und Stiefmutter
N: Q0116
O: Mitteleuropa, Deutschland (DDR) , Pommern, Sandfoerde und Jatznick
R: Ballade, Waise, boese Stiefmutter, Klage am Grab, Geist
M: 6/8
L: 1/8
K: A
E | A2GF2C | D3z2
A | G2FE2D | C3z2
E | c2cc2c | d3z2
F | E2AB2c | A3z2
E | c2cc2c | d3z2
F | E2AB2c | A3z2

